source/img/decor/businessman-icon.svg

<svg width="28" height="28" viewBox="0 0 28 28" fill="none" xmlns="http://www.w3.org/2000/svg">
<path d="M23.3758 23.2418V19.8933C23.3758 18.9558 23.2418 18.0182 22.7061 17.0806C22.1703 16.143 21.5006 15.3394 20.5631 14.8036C19.6255 14.1339 17.6164 14 16.6788 14L14.5358 16.277L15.3394 18.0182V22.0364L14 23.5097L12.6606 22.0364V18.0182L13.5982 16.277L11.3212 14C10.2497 14 8.24063 14.1339 7.30306 14.8036C6.36548 15.3394 5.82972 16.143 5.29396 17.0806C4.75821 18.0182 4.62427 18.8218 4.62427 19.8933V23.2418C4.62427 23.2418 8.10669 24.7151 14 24.7151C19.8934 24.7151 23.3758 23.2418 23.3758 23.2418Z" fill="#132576"/>
<path d="M14 3.41895C11.4551 3.41895 9.98178 5.82985 10.3836 8.50864C10.7854 11.1874 12.1248 13.0626 14 13.0626C15.8751 13.0626 17.2145 11.1874 17.6163 8.50864C18.0181 5.69592 16.5448 3.41895 14 3.41895Z" fill="#132576"/>
</svg>

<svg width="28" height="28" fill="none" xmlns="http://www.w3.org/2000/svg"><path d="M23.38 23.24V19.9a5.85 5.85 0 00-2.81-5.09c-.94-.67-2.95-.8-3.9-.8l-2.13 2.28.8 1.74v4.02L14 23.5l-1.34-1.47v-4.02l.94-1.74L11.32 14c-1.07 0-3.08.13-4.02.8a5.53 5.53 0 00-2 2.28 5.15 5.15 0 00-.68 2.81v3.35s3.49 1.48 9.38 1.48c5.9 0 9.38-1.48 9.38-1.48zM14 3.42c-2.54 0-4.02 2.41-3.62 5.09.4 2.68 1.74 4.55 3.62 4.55 1.88 0 3.21-1.87 3.62-4.55.4-2.81-1.08-5.1-3.62-5.1z" fill="#132576"/></svg>
